assets/Man cartwheeling/Medium-Dark/Flat/man_cartwheeling_flat_medium-dark.svg

<svg width="32" height="32" viewBox="0 0 32 32" fill="none" xmlns="http://www.w3.org/2000/svg">
<path d="M13.5 28.99L14 28.6V22L14.91 18L16 18.68V29C16 29.49 15.57 30 15.08 30H14.54H13.95H13.49C13.22 30 13 29.75 13 29.48C13.01 29.21 13.23 28.99 13.5 28.99ZM26.8073 25.2036C26.8605 25.2614 26.9652 25.3753 27.2997 25.7371C27.317 25.7496 27.3338 25.7638 27.35 25.78L27.96 26.43C28.07 26.56 28.06 26.75 27.94 26.86C27.81 26.97 27.62 26.96 27.51 26.84L27.49 26.82C27.4888 26.812 27.4875 26.8039 27.4861 26.7959L27.4842 26.794C27.4932 26.888 27.4585 26.9836 27.38 27.0501C27.2503 27.1598 27.0611 27.1402 26.9609 27.0211C26.9572 27.0175 26.9536 27.0138 26.9501 27.01L26.9435 27.0022L26.84 26.8901L26.8379 26.8791L26.8301 26.87C26.8401 26.97 26.8001 27.07 26.7201 27.14C26.5901 27.24 26.4101 27.22 26.3001 27.1L26.0301 26.8C25.9723 26.7421 25.8959 26.7029 25.8098 26.7091L25.8201 26.8001C25.8501 27.0001 25.7001 27.1901 25.5001 27.2101C25.2901 27.2301 25.1101 27.0801 25.0901 26.8801L25.0036 26.1978C24.9362 26.1231 24.8901 26.07 24.8901 26.07L18.8701 19.75L19.8101 18.72L21.3601 19.45L26.6126 24.9941L26.6129 24.9944C26.7131 25.1018 26.7415 25.1321 26.7697 25.1627L26.8073 25.2035L26.8073 25.2036Z" fill="#966661"/>
<path d="M21 14H15V17.7353C14.6781 18.5069 13.95 20.4264 13.95 21.9999H15.95L17.0172 20H18.9674L20.9199 21.9L22.4199 20.6C21.8677 19.037 21.0966 18.0785 21 17.9702V14Z" fill="#00A6ED"/>
<path d="M14.9518 14.05L4.2718 14.02C4.0518 14.02 3.9218 13.76 4.0518 13.58L4.4418 13.04C4.8718 12.45 5.3818 12.44 6.1118 12.36L16.0018 11C17.9118 10.65 18.9018 10.67 19.5618 10.03L26.7718 3.41002C27.3718 2.85002 28.34 2 28.8 2H29.5C29.71 2 29.8218 2.24002 29.6918 2.41002L21.0518 14.05H14.9518Z" fill="#966661"/>
<path d="M14.9517 14.0499H13.0017V11.4099L17.0317 10.7399C18.0117 10.5199 19.1817 10.2799 19.6517 9.84988L21.3517 8.37988L23.6717 10.5199L21.0517 14.0499H14.9517Z" fill="#9B9B9B"/>
<path d="M30.8601 2.89018C29.7301 3.52018 28.0901 4.44018 28.0901 4.44018L26.4001 3.72018L26.3601 2.55018C26.3501 2.28018 26.73 2.00006 27 2.00006C27 2.00006 30.17 1.94006 30.83 1.98006C31.05 1.99006 31.0901 2.76018 30.8601 2.89018ZM2.46988 14.69C3.72988 14.42 5.56988 14.03 5.56988 14.03L6.35988 12.37L5.61988 11.46C5.43988 11.25 5.12988 11.22 4.92988 11.4C4.92988 11.4 2.50988 13.45 2.03988 13.91C1.88988 14.07 2.20988 14.74 2.46988 14.69Z" fill="#533566"/>
<path d="M16.8601 20.41C16.8601 20.37 17.3901 19.23 17.7101 18.85C17.8301 18.71 18.0501 18.7 18.1701 18.85C18.5001 19.23 19.0501 20.41 19.0501 20.41C19.0501 21.06 18.6001 20.97 17.9401 20.97C17.2701 20.96 16.8601 21.07 16.8601 20.41Z" fill="#8B5C56"/>
<path d="M16.6901 22.5199C16.6901 22.8899 16.3901 23.1899 16.0201 23.1899C15.6501 23.1899 15.3501 22.8899 15.3501 22.5199C15.3501 22.1498 15.6501 21.8499 16.0201 21.8499C16.3901 21.8499 16.6901 22.1498 16.6901 22.5199ZM20.6 22.5199C20.6 22.8899 20.3 23.1899 19.93 23.1899C19.56 23.1899 19.26 22.8899 19.26 22.5199C19.26 22.1498 19.56 21.8499 19.93 21.8499C20.3 21.8499 20.6 22.1498 20.6 22.5199Z" fill="#8B5C56"/>
<path d="M18.1501 25.4999C19.2801 25.4999 20.1801 24.5399 20.1001 23.4099L19.9401 21.1399C19.8701 20.4299 19.3101 19.9199 18.6301 19.9199H17.3201C16.6401 19.9199 16.0801 20.4299 16.0101 21.1399L15.8501 23.4099C15.7701 24.5399 16.6701 25.4999 17.8001 25.4999H18.1501Z" fill="#966661"/>
<path d="M16.4431 23.6263L16.4444 23.6272L16.4462 23.6286L16.451 23.6322C16.4548 23.635 16.4597 23.6385 16.4657 23.6426C16.4776 23.6508 16.4939 23.6616 16.5144 23.6737C16.5551 23.698 16.6128 23.7284 16.6853 23.7567C16.8305 23.8132 17.0379 23.8619 17.2871 23.8315C17.4095 23.8166 17.4967 23.7053 17.4817 23.5828C17.4668 23.4604 17.3555 23.3733 17.2331 23.3882C17.0723 23.4078 16.9397 23.3765 16.8474 23.3405C16.8012 23.3226 16.7657 23.3036 16.743 23.2901C16.7317 23.2834 16.7237 23.278 16.7193 23.275L16.7155 23.2723C16.6182 23.1981 16.4791 23.216 16.4038 23.3128C16.3281 23.4101 16.3458 23.5505 16.4431 23.6263ZM19.2347 23.2723C19.332 23.1981 19.4711 23.216 19.5464 23.3128C19.6221 23.4101 19.6045 23.5504 19.5072 23.6261L19.5058 23.6272L19.504 23.6286L19.4991 23.6322C19.4953 23.635 19.4904 23.6385 19.4845 23.6426C19.4725 23.6508 19.4562 23.6616 19.4358 23.6737C19.3951 23.698 19.3374 23.7284 19.2649 23.7567C19.1197 23.8132 18.9123 23.8619 18.6631 23.8315C18.5406 23.8166 18.4535 23.7053 18.4684 23.5828C18.4834 23.4604 18.5947 23.3733 18.7171 23.3882C18.8779 23.4078 19.0105 23.3765 19.1028 23.3405C19.149 23.3226 19.1844 23.3036 19.2072 23.2901C19.2185 23.2834 19.2265 23.278 19.2309 23.275L19.2347 23.2723Z" fill="#372128"/>
<path d="M16.4502 22.64C16.5102 22.89 16.7302 23.07 17.0002 23.07C17.2802 23.07 17.5102 22.87 17.5602 22.61C17.5702 22.55 17.5302 22.5 17.4702 22.5H16.5602C16.4902 22.5 16.4302 22.57 16.4502 22.64ZM19.5002 22.64C19.4402 22.89 19.2202 23.07 18.9502 23.07C18.6702 23.07 18.4402 22.87 18.3902 22.61C18.3802 22.55 18.4202 22.5 18.4802 22.5H19.3902C19.4602 22.5 19.5202 22.57 19.5002 22.64Z" fill="white"/>
<path d="M16.7202 22.6C16.7202 22.8 16.8802 22.96 17.0802 22.96C17.2802 22.96 17.4502 22.8 17.4402 22.6V22.6C17.4402 22.56 17.4402 22.53 17.4302 22.5H16.7302C16.7202 22.53 16.7202 22.57 16.7202 22.6ZM19.22 22.6C19.22 22.8 19.06 22.96 18.86 22.96C18.66 22.96 18.5 22.8 18.5 22.6C18.5 22.56 18.5 22.53 18.51 22.5H19.21C19.22 22.53 19.22 22.57 19.22 22.6Z" fill="#7D4533"/>
<path d="M17.0801 22.81C17.2001 22.81 17.2901 22.71 17.2901 22.6C17.2901 22.56 17.2801 22.53 17.2601 22.5H16.8901C16.8801 22.53 16.8701 22.57 16.8701 22.6C16.8701 22.72 16.9701 22.81 17.0801 22.81ZM18.8702 22.81C18.7502 22.81 18.6602 22.71 18.6602 22.6C18.6602 22.56 18.6702 22.53 18.6902 22.5H19.0602C19.0702 22.53 19.0802 22.57 19.0802 22.6C19.0802 22.72 18.9802 22.81 18.8702 22.81Z" fill="black"/>
<path d="M17.2601 22.7399C17.2601 22.7731 17.2333 22.7999 17.2001 22.7999C17.167 22.7999 17.1401 22.7731 17.1401 22.7399C17.1401 22.7068 17.167 22.6799 17.2001 22.6799C17.2333 22.6799 17.2601 22.7068 17.2601 22.7399ZM19.0502 22.7399C19.0502 22.7731 19.0233 22.7999 18.9902 22.7999C18.957 22.7999 18.9302 22.7731 18.9302 22.7399C18.9302 22.7068 18.957 22.6799 18.9902 22.6799C19.0233 22.6799 19.0502 22.7068 19.0502 22.7399Z" fill="white"/>
<path d="M18.1301 22.6299L18.3401 21.9499C18.3801 21.8099 18.2801 21.6699 18.1301 21.6699H17.8201C17.6701 21.6699 17.5701 21.8099 17.6101 21.9499L17.8201 22.6299C17.8701 22.7799 18.0801 22.7799 18.1301 22.6299Z" fill="#75443E"/>
<path d="M15.8401 25.0899L16.0101 25.1799C16.1301 25.2399 16.2401 25.3199 16.3401 25.4199L16.6801 25.7599C16.9301 26.0099 17.3101 26.0999 17.6401 25.9799C17.8601 25.8999 18.1001 25.8999 18.3101 25.9799C18.6101 26.1299 18.9601 26.0699 19.2001 25.8399L19.6101 25.4299C19.7101 25.3299 19.8201 25.2499 19.9401 25.1899L20.1101 25.0999C20.4301 24.9399 20.6001 24.5899 20.5401 24.2399L20.3101 22.9799C20.2901 22.8499 20.1801 22.7599 20.0501 22.7599C20.0501 22.7599 20.0701 23.1199 20.0901 23.3499C20.1001 23.4699 20.0501 23.5799 19.9601 23.6599L19.8901 23.7299C19.7901 23.8199 19.7301 23.9499 19.7301 24.0899V24.4399C19.7301 24.5399 19.6601 24.6299 19.5701 24.6499C19.3101 24.7199 18.7501 24.8299 17.9801 24.8299C17.2101 24.8299 16.6501 24.7199 16.3901 24.6499C16.2901 24.6299 16.2301 24.5399 16.2301 24.4399V24.0899C16.2301 23.9499 16.1701 23.8199 16.0701 23.7299L15.9901 23.6599C15.9001 23.5799 15.8501 23.4699 15.8601 23.3499C15.8701 23.1199 15.9001 22.7699 15.9001 22.7699C15.7801 22.7799 15.6701 22.8699 15.6501 22.9899L15.4201 24.2499C15.3401 24.5899 15.5201 24.9399 15.8401 25.0899Z" fill="#2D242D"/>
<path d="M17.9701 21.32C18.1901 21.32 18.4001 21.37 18.5701 21.46C18.6301 21.49 18.6901 21.42 18.6601 21.37C18.5101 21.15 18.2601 21 17.9701 21C17.6801 21 17.4301 21.15 17.2801 21.37C17.2401 21.43 17.3101 21.49 17.3701 21.46C17.5501 21.37 17.7501 21.32 17.9701 21.32Z" fill="#990838"/>
</svg>

<svg xmlns="http://www.w3.org/2000/svg" width="32" height="32" fill="none"><path fill="#966661" d="m13.5 28.99.5-.39V22l.91-4 1.09.68V29c0 .49-.43 1-.92 1H13.49c-.27 0-.49-.25-.49-.52.01-.27.23-.49.5-.49Zm13.307-3.786.493.533a.413.413 0 0 1 .05.043l.61.65c.11.13.1.32-.02.43-.13.11-.32.1-.43-.02l-.02-.02a1.006 1.006 0 0 0-.004-.024l-.002-.002a.296.296 0 0 1-.104.256.299.299 0 0 1-.43-.04l-.006-.008-.104-.112-.002-.01-.008-.01c.01.1-.03.2-.11.27a.31.31 0 0 1-.42-.04l-.27-.3a.283.283 0 0 0-.22-.09l.01.09c.03.2-.12.39-.32.41a.372.372 0 0 1-.41-.33l-.086-.682-.114-.128-6.02-6.32.94-1.03 1.55.73 5.253 5.544.157.169.037.04Z"/><path fill="#00A6ED" d="M21 14h-6v3.735c-.322.772-1.05 2.691-1.05 4.265h2l1.067-2h1.95l1.953 1.9 1.5-1.3c-.552-1.563-1.323-2.522-1.42-2.63V14Z"/><path fill="#966661" d="m14.952 14.05-10.68-.03c-.22 0-.35-.26-.22-.44l.39-.54c.43-.59.94-.6 1.67-.68l9.89-1.36c1.91-.35 2.9-.33 3.56-.97l7.21-6.62C27.372 2.85 28.34 2 28.8 2h.7c.21 0 .322.24.192.41l-8.64 11.64h-6.1Z"/><path fill="#9B9B9B" d="M14.952 14.05h-1.95v-2.64l4.03-.67c.98-.22 2.15-.46 2.62-.89l1.7-1.47 2.32 2.14-2.62 3.53h-6.1Z"/><path fill="#533566" d="M30.86 2.89c-1.13.63-2.77 1.55-2.77 1.55l-1.69-.72-.04-1.17c-.01-.27.37-.55.64-.55 0 0 3.17-.06 3.83-.02.22.01.26.78.03.91ZM2.47 14.69c1.26-.27 3.1-.66 3.1-.66l.79-1.66-.74-.91a.483.483 0 0 0-.69-.06s-2.42 2.05-2.89 2.51c-.15.16.17.83.43.78Z"/><path fill="#8B5C56" d="M16.86 20.41c0-.04.53-1.18.85-1.56.12-.14.34-.15.46 0 .33.38.88 1.56.88 1.56 0 .65-.45.56-1.11.56-.67-.01-1.08.1-1.08-.56ZM16.69 22.52a.67.67 0 1 1-1.34 0 .67.67 0 0 1 1.34 0Zm3.91 0a.67.67 0 1 1-1.34 0 .67.67 0 0 1 1.34 0Z"/><path fill="#966661" d="M18.15 25.5c1.13 0 2.03-.96 1.95-2.09l-.16-2.27c-.07-.71-.63-1.22-1.31-1.22h-1.31c-.68 0-1.24.51-1.31 1.22l-.16 2.27c-.08 1.13.82 2.09 1.95 2.09h.35Z"/><path fill="#372128" d="m16.443 23.626.001.001.002.002.005.003a.51.51 0 0 0 .063.042 1.24 1.24 0 0 0 .773.158.223.223 0 1 0-.054-.444.793.793 0 0 1-.514-.113l-.004-.003a.223.223 0 0 0-.272.354Zm2.792-.354a.223.223 0 0 1 .272.354l-.001.001-.002.002-.005.003a.664.664 0 0 1-.063.042 1.24 1.24 0 0 1-.773.158.223.223 0 1 1 .054-.444.793.793 0 0 0 .514-.113l.004-.003Z"/><path fill="#fff" d="M16.45 22.64a.57.57 0 0 0 1.11-.03c.01-.06-.03-.11-.09-.11h-.91c-.07 0-.13.07-.11.14Zm3.05 0a.57.57 0 0 1-1.11-.03c-.01-.06.03-.11.09-.11h.91c.07 0 .13.07.11.14Z"/><path fill="#7D4533" d="M16.72 22.6c0 .2.16.36.36.36.2 0 .37-.16.36-.36 0-.04 0-.07-.01-.1h-.7c-.01.03-.01.07-.01.1Zm2.5 0c0 .2-.16.36-.36.36-.2 0-.36-.16-.36-.36 0-.04 0-.07.01-.1h.7c.01.03.01.07.01.1Z"/><path fill="#000" d="M17.08 22.81c.12 0 .21-.1.21-.21 0-.04-.01-.07-.03-.1h-.37c-.01.03-.02.07-.02.1 0 .12.1.21.21.21Zm1.79 0c-.12 0-.21-.1-.21-.21 0-.04.01-.07.03-.1h.37c.01.03.02.07.02.1 0 .12-.1.21-.21.21Z"/><path fill="#fff" d="M17.26 22.74a.06.06 0 1 1-.12 0 .06.06 0 0 1 .12 0Zm1.79 0a.06.06 0 1 1-.12 0 .06.06 0 0 1 .12 0Z"/><path fill="#75443E" d="m18.13 22.63.21-.68a.217.217 0 0 0-.21-.28h-.31c-.15 0-.25.14-.21.28l.21.68c.05.15.26.15.31 0Z"/><path fill="#2D242D" d="m15.84 25.09.17.09c.12.06.23.14.33.24l.34.34c.25.25.63.34.96.22.22-.08.46-.08.67 0 .3.15.65.09.89-.14l.41-.41c.1-.1.21-.18.33-.24l.17-.09c.32-.16.49-.51.43-.86l-.23-1.26a.259.259 0 0 0-.26-.22s.02.36.04.59a.37.37 0 0 1-.13.31l-.07.07c-.1.09-.16.22-.16.36v.35c0 .1-.07.19-.16.21-.26.07-.82.18-1.59.18-.77 0-1.33-.11-1.59-.18-.1-.02-.16-.11-.16-.21v-.35c0-.14-.06-.27-.16-.36l-.08-.07a.37.37 0 0 1-.13-.31c.01-.23.04-.58.04-.58-.12.01-.23.1-.25.22l-.23 1.26c-.08.34.1.69.42.84Z"/><path fill="#990838" d="M17.97 21.32c.22 0 .43.05.6.14.06.03.12-.04.09-.09a.834.834 0 0 0-.69-.37c-.29 0-.54.15-.69.37-.04.06.03.12.09.09.18-.09.38-.14.6-.14Z"/></svg>
